barni/images/hero-clouds.svg

<svg width="375" height="124" viewBox="0 0 375 124" fill="none" xmlns="http://www.w3.org/2000/svg">
<g filter="url(#filter0_d_346_14)">
<path d="M87.2492 75.6484C87.021 75.6484 86.7928 75.6484 86.5646 75.6838C85.2879 73.8616 83.6037 72.362 81.6456 71.3041C79.6876 70.2462 77.5097 69.6592 75.2849 69.5895C74.1296 67.1225 72.2948 65.0356 69.9954 63.5733C67.6959 62.111 65.0271 61.3338 62.3016 61.3328C61.8022 61.333 61.3032 61.3593 60.8065 61.4114C59.2748 58.2877 56.8969 55.6561 53.9432 53.8156C50.9894 51.9751 47.5782 50.9996 44.0974 51C40.4116 50.9999 36.8088 52.0936 33.7457 54.1425C30.6827 56.1913 28.2975 59.103 26.8925 62.5084C25.6567 62.7978 24.4656 63.2527 23.3516 63.8609C22.0115 62.161 20.303 60.787 18.3546 59.8424C16.4063 58.8978 14.2689 58.4072 12.1034 58.4075C8.80918 58.4083 5.61562 59.5421 3.0593 61.6185C0.502981 63.6949 -1.26031 66.5873 -1.93433 69.8097C-3.51673 69.5182 -5.13726 69.4982 -6.72635 69.7507C-8.67938 70.0657 -10.5457 70.7826 -12.207 71.856C-13.8683 72.9294 -15.2884 74.336 -16.3773 75.9865C-17.1426 75.7539 -17.9379 75.6347 -18.7379 75.6327C-20.9291 75.6327 -23.0306 76.5026 -24.5801 78.051C-26.1295 79.5995 -27 81.6996 -27 83.8895C-27 86.0793 -26.1295 88.1794 -24.5801 89.7279C-23.0306 91.2763 -20.9291 92.1462 -18.7379 92.1462C-17.9383 92.1431 -17.1433 92.0253 -16.3773 91.7963C-14.8578 94.1027 -12.7035 95.921 -10.1738 97.0322C-7.64421 98.1435 -4.84709 98.5003 -2.11926 98.0596C-0.44629 97.7895 1.16552 97.2251 2.6413 96.3926C4.27433 99.2113 6.62033 101.551 9.44398 103.178C12.2676 104.804 15.4696 105.66 18.7288 105.66C21.63 105.662 24.4912 104.985 27.0834 103.683C29.6755 102.381 31.9264 100.49 33.6557 98.1619C34.7971 98.7352 36.0568 99.0341 37.3343 99.0347C38.6933 99.0362 40.0315 98.7012 41.2293 98.0596C44.5926 100.938 48.8757 102.518 53.3038 102.514C55.9623 102.516 58.5902 101.947 61.0094 100.845C63.4286 99.7436 65.5827 98.1352 67.3257 96.1291C69.581 97.5186 72.1791 98.2525 74.8285 98.2484C77.1321 98.2468 79.4013 97.6894 81.4432 96.6236C83.4851 95.5578 85.2393 94.0151 86.5568 92.1266C86.785 92.1462 87.0131 92.1619 87.2413 92.1619C89.4326 92.1619 91.5341 91.292 93.0835 89.7436C94.633 88.1952 95.5034 86.095 95.5034 83.9052C95.5034 81.7167 94.6341 79.6178 93.0863 78.0695C91.5386 76.5213 89.4391 75.6505 87.2492 75.6484V75.6484Z" fill="white"/>
</g>
<g filter="url(#filter1_d_346_14)">
<path d="M432.209 35.2084C431.883 35.2084 431.557 35.2084 431.231 35.2589C429.407 32.6561 427.001 30.514 424.204 29.0029C421.407 27.4918 418.295 26.6532 415.117 26.5537C413.467 23.0298 410.846 20.0488 407.561 17.96C404.276 15.8712 400.464 14.761 396.57 14.7595C395.857 14.76 395.144 14.7975 394.434 14.8719C392.246 10.4099 388.849 6.65083 384.63 4.02187C380.41 1.3929 375.537 -0.000510646 370.565 1.4038e-07C365.3 -0.00013188 360.153 1.56217 355.777 4.4888C351.402 7.41543 347.994 11.5746 345.987 16.4388C344.222 16.8522 342.52 17.5021 340.929 18.3708C339.014 15.9426 336.574 13.98 333.79 12.6307C331.007 11.2814 327.954 10.5806 324.86 10.581C320.155 10.5822 315.592 12.2018 311.941 15.1677C308.289 18.1337 305.77 22.2652 304.807 26.8682C302.547 26.4518 300.232 26.4233 297.962 26.784C295.172 27.2339 292.506 28.2579 290.132 29.7912C287.759 31.3245 285.73 33.3337 284.175 35.6914C283.082 35.359 281.945 35.1887 280.803 35.1859C277.672 35.1859 274.67 36.4285 272.457 38.6403C270.243 40.8522 269 43.8521 269 46.9801C269 50.1081 270.243 53.108 272.457 55.3198C274.67 57.5316 277.672 58.7742 280.803 58.7742C281.945 58.7698 283.081 58.6014 284.175 58.2744C286.346 61.5689 289.423 64.1662 293.037 65.7535C296.65 67.3408 300.646 67.8505 304.543 67.2211C306.933 66.8352 309.235 66.029 311.344 64.8398C313.676 68.8661 317.028 72.2086 321.061 74.532C325.095 76.8555 329.669 78.0781 334.325 78.0773C338.469 78.0802 342.557 77.113 346.26 75.2531C349.963 73.3932 353.178 70.6924 355.649 67.3671C357.279 68.1861 359.079 68.6131 360.904 68.6139C362.845 68.616 364.757 68.1375 366.468 67.2211C371.272 71.3326 377.391 73.5898 383.716 73.5843C387.514 73.5868 391.268 72.7737 394.724 71.2001C398.18 69.6264 401.257 67.3291 403.747 64.4635C406.969 66.4483 410.68 67.4966 414.465 67.4907C417.756 67.4884 420.998 66.6922 423.915 65.1698C426.831 63.6474 429.337 61.4437 431.219 58.7461C431.545 58.7742 431.871 58.7967 432.197 58.7967C435.328 58.7967 438.33 57.5541 440.543 55.3423C442.757 53.1304 444 50.1305 444 47.0025C444 43.8765 442.758 40.8783 440.547 38.6668C438.336 36.4553 435.337 35.2113 432.209 35.2084Z" fill="#E6F6FF"/>
</g>
<defs>
<filter id="filter0_d_346_14" x="-41" y="41" width="150.503" height="82.6598" filterUnits="userSpaceOnUse" color-interpolation-filters="sRGB">
<feFlood flood-opacity="0" result="BackgroundImageFix"/>
<feColorMatrix in="SourceAlpha" type="matrix" values="0 0 0 0 0 0 0 0 0 0 0 0 0 0 0 0 0 0 127 0" result="hardAlpha"/>
<feOffset dy="4"/>
<feGaussianBlur stdDeviation="7"/>
<feComposite in2="hardAlpha" operator="out"/>
<feColorMatrix type="matrix" values="0 0 0 0 0.247708 0 0 0 0 0.335337 0 0 0 0 0.5125 0 0 0 0.3 0"/>
<feBlend mode="normal" in2="BackgroundImageFix" result="effect1_dropShadow_346_14"/>
<feBlend mode="normal" in="SourceGraphic" in2="effect1_dropShadow_346_14" result="shape"/>
</filter>
<filter id="filter1_d_346_14" x="255" y="-14" width="203" height="106.077" filterUnits="userSpaceOnUse" color-interpolation-filters="sRGB">
<feFlood flood-opacity="0" result="BackgroundImageFix"/>
<feColorMatrix in="SourceAlpha" type="matrix" values="0 0 0 0 0 0 0 0 0 0 0 0 0 0 0 0 0 0 127 0" result="hardAlpha"/>
<feOffset/>
<feGaussianBlur stdDeviation="7"/>
<feComposite in2="hardAlpha" operator="out"/>
<feColorMatrix type="matrix" values="0 0 0 0 0.247708 0 0 0 0 0.335337 0 0 0 0 0.5125 0 0 0 0.3 0"/>
<feBlend mode="normal" in2="BackgroundImageFix" result="effect1_dropShadow_346_14"/>
<feBlend mode="normal" in="SourceGraphic" in2="effect1_dropShadow_346_14" result="shape"/>
</filter>
</defs>
</svg>

<svg width="375" height="124" fill="none" xmlns="http://www.w3.org/2000/svg"><g filter="url(#a)"><path d="M87.25 75.648c-.229 0-.457 0-.685.036a14.313 14.313 0 0 0-11.28-6.094 14.334 14.334 0 0 0-14.478-8.179 18.614 18.614 0 0 0-27.06-7.269 18.6 18.6 0 0 0-6.855 8.366c-1.235.29-2.426.745-3.54 1.353a14.315 14.315 0 0 0-11.249-5.453 14.35 14.35 0 0 0-9.044 3.21 14.334 14.334 0 0 0-4.993 8.192 14.174 14.174 0 0 0-4.792-.06 14.293 14.293 0 0 0-9.651 6.237 8.188 8.188 0 0 0-2.36-.354c-2.192 0-4.294.87-5.843 2.418a8.254 8.254 0 0 0 8.203 13.745A14.33 14.33 0 0 0-2.12 98.06a14.342 14.342 0 0 0 4.76-1.667 18.583 18.583 0 0 0 16.088 9.267 18.585 18.585 0 0 0 14.927-7.498 8.23 8.23 0 0 0 7.574-.102 18.544 18.544 0 0 0 12.074 4.454 18.555 18.555 0 0 0 14.022-6.385 14.317 14.317 0 0 0 19.231-4.002c.228.02.456.035.684.035 2.192 0 4.293-.87 5.843-2.418a8.254 8.254 0 0 0 .002-11.674 8.265 8.265 0 0 0-5.837-2.422Z" fill="#fff"/></g><g filter="url(#b)"><path d="M432.209 35.208c-.326 0-.652 0-.978.05a20.45 20.45 0 0 0-16.114-8.704 20.472 20.472 0 0 0-7.556-8.594 20.497 20.497 0 0 0-13.127-3.088 26.567 26.567 0 0 0-9.804-10.85 26.6 26.6 0 0 0-28.853.467 26.573 26.573 0 0 0-9.79 11.95 20.14 20.14 0 0 0-5.058 1.932 20.45 20.45 0 0 0-16.069-7.79 20.5 20.5 0 0 0-12.919 4.587 20.475 20.475 0 0 0-7.134 11.7 20.245 20.245 0 0 0-6.845-.084 20.395 20.395 0 0 0-13.787 8.907 11.692 11.692 0 0 0-3.372-.505 11.806 11.806 0 0 0-8.346 3.454 11.788 11.788 0 0 0 0 16.68 11.806 11.806 0 0 0 8.346 3.454 11.937 11.937 0 0 0 3.372-.5 20.487 20.487 0 0 0 27.169 6.565 26.537 26.537 0 0 0 9.717 9.693 26.566 26.566 0 0 0 13.264 3.545 26.551 26.551 0 0 0 21.324-10.71 11.759 11.759 0 0 0 10.819-.146 26.492 26.492 0 0 0 17.248 6.363 26.522 26.522 0 0 0 20.031-9.12 20.374 20.374 0 0 0 10.718 3.027 20.441 20.441 0 0 0 16.754-8.745c.326.028.652.05.978.05 3.131 0 6.133-1.242 8.346-3.454a11.788 11.788 0 0 0 .004-16.675 11.806 11.806 0 0 0-8.338-3.459Z" fill="#E6F6FF"/></g><defs><filter id="a" x="-41" y="41" width="150.503" height="82.66" filterUnits="userSpaceOnUse" color-interpolation-filters="sRGB"><feFlood flood-opacity="0" result="BackgroundImageFix"/><feColorMatrix in="SourceAlpha" values="0 0 0 0 0 0 0 0 0 0 0 0 0 0 0 0 0 0 127 0" result="hardAlpha"/><feOffset dy="4"/><feGaussianBlur stdDeviation="7"/><feComposite in2="hardAlpha" operator="out"/><feColorMatrix values="0 0 0 0 0.247708 0 0 0 0 0.335337 0 0 0 0 0.5125 0 0 0 0.3 0"/><feBlend in2="BackgroundImageFix" result="effect1_dropShadow_346_14"/><feBlend in="SourceGraphic" in2="effect1_dropShadow_346_14" result="shape"/></filter><filter id="b" x="255" y="-14" width="203" height="106.077" filterUnits="userSpaceOnUse" color-interpolation-filters="sRGB"><feFlood flood-opacity="0" result="BackgroundImageFix"/><feColorMatrix in="SourceAlpha" values="0 0 0 0 0 0 0 0 0 0 0 0 0 0 0 0 0 0 127 0" result="hardAlpha"/><feOffset/><feGaussianBlur stdDeviation="7"/><feComposite in2="hardAlpha" operator="out"/><feColorMatrix values="0 0 0 0 0.247708 0 0 0 0 0.335337 0 0 0 0 0.5125 0 0 0 0.3 0"/><feBlend in2="BackgroundImageFix" result="effect1_dropShadow_346_14"/><feBlend in="SourceGraphic" in2="effect1_dropShadow_346_14" result="shape"/></filter></defs></svg>
